({EnvGen.kr(Env([0,1,1,1,1,0,0,1],
	            [0,0,0,1,0,1,0,0],0,6,0),Trig.kr(1,12))}.plot(duration:12))


Out.kr(~bus14, EnvGen.kr(Env([0,1,1,1,1,0,0,1],
	            [0,0,0,1,0,1,0,0],0,6,0),Trig.kr(1,12)));