Pbind(\instrument,\gran,\dur,Pseq([4/1],inf)
\type, Pseq([\note, \rest,\rest,\rest, \rest,\rest,\rest,\rest],inf),
	\amp, 1,\buf, ~buf,\out,~distoPerch,\gate, 1,\duration,Pkey(\dur),\impulse,Pkey(\dur),




		\pos,Pseq([ Pseq([0.99999.rand],8),Pseq([0.99999.rand],8),Pseq([0.99999.rand],8),Pseq([0.99999.rand],8),Pseq([0.99999.rand],8),Pseq([0.99999.rand],8),Pseq([0.99999.rand],8),Pseq([0.99999.rand],8),  ],inf),
